src/assets/outline/Backward5Seconds.svg

<?xml version="1.0" encoding="UTF-8"?>
<svg width="24" height="24" viewBox="0 0 24 24" xmlns="http://www.w3.org/2000/svg">
 <path d="m12.38 16.92h-2.29c-0.40998 0-0.74998-0.34-0.74998-0.75s0.34-0.75 0.74998-0.75h2.29c0.43 0 0.78-0.3499 0.78-0.7799s-0.35-0.7801-0.78-0.7801h-2.29c-0.23998 0-0.46997-0.12-0.60997-0.31s-0.18-0.4499-0.1-0.6799l0.75997-2.29c0.1-0.31 0.39-0.51 0.71-0.51h3.06c0.41 0 0.75 0.34 0.75 0.75s-0.34 0.75-0.75 0.75h-2.52l-0.26 0.7899h1.25c1.26 0 2.28 1.0201 2.28 2.2801s-1.02 2.2799-2.28 2.2799z"/>
 <path d="m10.02 5.2199c-0.17003 0-0.33003-0.04998-0.47003-0.16998-0.32-0.26-0.36999-0.72999-0.11999-1.05l1.98-2.47c0.26-0.32 0.73-0.37006 1.05-0.12006 0.32 0.26 0.37 0.73005 0.12 1.05l-1.98 2.47c-0.14 0.19-0.36 0.28998-0.58 0.28998z"/>
 <path d="m12 22.75c-5.31 0-9.64-4.32-9.64-9.64 0-2.07 0.67002-4.06 1.95-5.76 0.25-0.33 0.71998-0.39997 1.05-0.14997s0.40003 0.71999 0.15003 1.05c-1.08 1.44-1.65 3.12-1.65 4.86 0 4.49 3.65 8.14 8.14 8.14 4.49 0 8.14-3.65 8.14-8.14 0-4.49-3.65-8.14-8.14-8.14-0.58 0-1.17 0.07003-1.81 0.22003-0.40002 0.09-0.81001-0.16-0.90001-0.56s0.15999-0.81002 0.55999-0.90002c0.75002-0.17 1.46-0.26001 2.15-0.26001 5.31 0 9.64 4.32 9.64 9.64 0 5.32-4.33 9.64-9.64 9.64z"/>
</svg>

<svg width="24" height="24" viewBox="0 0 24 24"  xmlns="http://www.w3.org/2000/svg">
<path d="M12.3801 16.92H10.0901C9.68012 16.92 9.34012 16.58 9.34012 16.17C9.34012 15.76 9.68012 15.42 10.0901 15.42H12.3801C12.8101 15.42 13.1601 15.0701 13.1601 14.6401C13.1601 14.2101 12.8101 13.86 12.3801 13.86H10.0901C9.85012 13.86 9.62013 13.74 9.48013 13.55C9.34013 13.36 9.30013 13.1001 9.38013 12.8701L10.1401 10.5801C10.2401 10.2701 10.5301 10.0701 10.8501 10.0701H13.9101C14.3201 10.0701 14.6601 10.4101 14.6601 10.8201C14.6601 11.2301 14.3201 11.5701 13.9101 11.5701H11.3901L11.1301 12.36H12.3801C13.6401 12.36 14.6601 13.3801 14.6601 14.6401C14.6601 15.9001 13.6401 16.92 12.3801 16.92Z" />
<path d="M10.02 5.21993C9.84997 5.21993 9.68997 5.16995 9.54997 5.04995C9.22997 4.78995 9.17998 4.31996 9.42998 3.99996L11.41 1.52999C11.67 1.20999 12.14 1.15993 12.46 1.40993C12.78 1.66993 12.83 2.13998 12.58 2.45998L10.6 4.92995C10.46 5.11995 10.24 5.21993 10.02 5.21993Z" />
<path d="M11.9999 22.75C6.68988 22.75 2.35986 18.43 2.35986 13.11C2.35986 11.04 3.02988 9.04998 4.30988 7.34998C4.55988 7.01998 5.02986 6.95001 5.35986 7.20001C5.68986 7.45001 5.75989 7.92 5.50989 8.25C4.42989 9.69 3.85986 11.37 3.85986 13.11C3.85986 17.6 7.50988 21.25 11.9999 21.25C16.4899 21.25 20.1399 17.6 20.1399 13.11C20.1399 8.61999 16.4899 4.96997 11.9999 4.96997C11.4199 4.96997 10.8299 5.04 10.1899 5.19C9.78988 5.28 9.37989 5.03 9.28989 4.63C9.19989 4.23 9.44988 3.81998 9.84988 3.72998C10.5999 3.55998 11.3099 3.46997 11.9999 3.46997C17.3099 3.46997 21.6399 7.78999 21.6399 13.11C21.6399 18.43 17.3099 22.75 11.9999 22.75Z" />
</svg>
